assets/icons/24px/stroke/arrow-circle-forward-thirty-24px.svg

<svg width="24" height="24" viewBox="0 0 24 24" fill="none" xmlns="http://www.w3.org/2000/svg">
<path fill-rule="evenodd" clip-rule="evenodd" d="M16.1135 2.30587C16.4969 1.90831 17.1299 1.89679 17.5275 2.28015L20.1941 4.85152C20.3896 5.03999 20.5 5.29984 20.5 5.57136C20.5 5.84288 20.3896 6.10273 20.1941 6.2912L17.5275 8.86271C17.13 9.24608 16.4969 9.23458 16.1135 8.83703C15.7302 8.43948 15.7417 7.80642 16.1392 7.42305L17.0224 6.57137L12.5 6.57136C8.56459 6.57136 5.5 9.24909 5.5 13.2857C5.5 17.3223 8.56459 20 12.5 20C16.2946 20 18.8778 17.0681 18.8778 13.2857C18.8778 12.7334 19.3255 12.2857 19.8778 12.2857C20.4301 12.2857 20.8778 12.7334 20.8778 13.2857C20.8778 18.0243 17.542 22 12.5 22C7.59886 22 3.5 18.5607 3.5 13.2857C3.5 8.01062 7.59886 4.57136 12.5 4.57136L17.0223 4.57137L16.1392 3.71985C15.7417 3.33649 15.7301 2.70343 16.1135 2.30587Z" fill="white"/>
<path fill-rule="evenodd" clip-rule="evenodd" d="M14.3146 11.3718C14.1283 11.7154 14 12.3557 14 13.5C14 14.6443 14.1283 15.2846 14.3146 15.6282C14.3999 15.7857 14.4906 15.8675 14.5804 15.9157C14.6748 15.9665 14.806 16 15 16C15.1816 16 15.3082 15.9637 15.4029 15.9081C15.4963 15.8531 15.5926 15.7594 15.6823 15.5886C15.8732 15.2248 16 14.5777 16 13.5C16 12.4223 15.8732 11.7752 15.6823 11.4114C15.5926 11.2406 15.4963 11.1469 15.4029 11.0919C15.3083 11.0363 15.1816 11 15 11C14.806 11 14.6748 11.0335 14.5804 11.0843C14.4906 11.1325 14.3999 11.2143 14.3146 11.3718ZM14.1071 10.2033C14.3876 10.0526 14.694 10 15 10C15.3184 10 15.6292 10.065 15.9096 10.2298C16.1912 10.3953 16.4074 10.6411 16.5677 10.9466C16.8768 11.5355 17 12.3884 17 13.5C17 14.6116 16.8768 15.4645 16.5677 16.0533C16.4074 16.3589 16.1912 16.6047 15.9096 16.7702C15.6292 16.935 15.3184 17 15 17C14.694 17 14.3876 16.9474 14.1071 16.7967C13.8218 16.6434 13.6001 16.4085 13.4354 16.1048C13.1217 15.526 13 14.6664 13 13.5C13 12.3336 13.1217 11.4739 13.4354 10.8952C13.6 10.5915 13.8218 10.3566 14.1071 10.2033ZM10.3823 11.3094C9.9672 11.2633 9.57885 11.4603 9.4472 11.7236C9.32371 11.9706 9.02337 12.0707 8.77638 11.9472C8.52939 11.8237 8.42928 11.5234 8.55277 11.2764C8.92113 10.5397 9.78277 10.2367 10.4927 10.3156C10.8633 10.3567 11.2424 10.5041 11.5332 10.7949C11.8314 11.093 12 11.5058 12 12C12 12.6419 11.7329 13.1297 11.3488 13.4602C11.7543 13.7929 12 14.3042 12 15C12 15.931 11.5202 16.6358 10.8005 16.9057C10.094 17.1706 9.26689 16.974 8.64643 16.3536C8.45117 16.1583 8.45117 15.8417 8.64643 15.6464C8.8417 15.4512 9.15828 15.4512 9.35354 15.6464C9.73308 16.026 10.1559 16.0794 10.4494 15.9693C10.7298 15.8642 11 15.569 11 15C11 14.547 10.8486 14.3362 10.6969 14.2193C10.5271 14.0885 10.2825 14.0198 10.01 14.0014C9.8712 14.0145 9.75237 14.0183 9.66479 14.0186C9.61651 14.0189 9.5773 14.018 9.549 14.017C9.53484 14.0166 9.52337 14.0161 9.51483 14.0156L9.50421 14.015L9.50059 14.0148L9.49921 14.0147C9.49915 14.0147 9.49812 14.0147 9.53149 13.5158C9.45545 13.0216 9.45552 13.0216 9.45559 13.0216L9.45669 13.0214L9.45823 13.0212L9.46217 13.0206L9.47345 13.019C9.48245 13.0178 9.49441 13.0163 9.50908 13.0146C9.5384 13.0112 9.57876 13.0072 9.62834 13.0038C9.71818 12.9976 9.84 12.9933 9.98237 12.9987C10.2338 12.9667 10.4933 12.8709 10.6829 12.7137C10.8659 12.562 11 12.3427 11 12C11 11.7442 10.9186 11.5945 10.8261 11.502C10.7263 11.4022 10.5741 11.3308 10.3823 11.3094ZM9.53149 13.5158L9.45559 13.0216C9.2036 13.0603 9.02101 13.2825 9.03195 13.5372C9.0429 13.7919 9.24374 13.9976 9.49812 14.0147L9.53149 13.5158ZM9.56325 13.0168C9.5632 13.0168 9.56321 13.0168 9.56325 13.0168Z" fill="white"/>
</svg>

<svg width="24" height="24" fill="none" xmlns="http://www.w3.org/2000/svg"><path fill-rule="evenodd" clip-rule="evenodd" d="M16.113 2.306a1 1 0 0 1 1.415-.026l2.666 2.572a1 1 0 0 1 0 1.44l-2.666 2.57a1 1 0 0 1-1.389-1.439l.883-.852H12.5c-3.935 0-7 2.678-7 6.715 0 4.036 3.065 6.714 7 6.714 3.795 0 6.378-2.932 6.378-6.714a1 1 0 1 1 2 0c0 4.738-3.336 8.714-8.378 8.714-4.901 0-9-3.44-9-8.714 0-5.275 4.099-8.715 9-8.715h4.522l-.883-.851a1 1 0 0 1-.026-1.414z" fill="#fff"/><path fill-rule="evenodd" clip-rule="evenodd" d="M14.315 11.372c-.187.343-.315.984-.315 2.128 0 1.144.128 1.785.315 2.128a.66.66 0 0 0 .265.288c.095.05.226.084.42.084a.775.775 0 0 0 .403-.092.758.758 0 0 0 .28-.32c.19-.363.317-1.01.317-2.088s-.127-1.725-.318-2.089a.758.758 0 0 0-.28-.32A.775.775 0 0 0 15 11a.872.872 0 0 0-.42.084.66.66 0 0 0-.265.288zm-.208-1.169c.28-.15.587-.203.893-.203.318 0 .63.065.91.23.281.165.497.411.658.717.309.589.432 1.441.432 2.553 0 1.112-.123 1.964-.432 2.553-.16.306-.377.552-.658.717-.28.165-.592.23-.91.23a1.86 1.86 0 0 1-.893-.203 1.656 1.656 0 0 1-.672-.692C13.122 15.526 13 14.666 13 13.5s.122-2.026.435-2.605c.165-.303.387-.538.672-.692zm-3.725 1.106c-.415-.046-.803.151-.935.415a.5.5 0 1 1-.894-.448c.368-.736 1.23-1.04 1.94-.96.37.04.75.188 1.04.479.298.298.467.71.467 1.205 0 .642-.267 1.13-.651 1.46.405.333.651.844.651 1.54 0 .931-.48 1.636-1.2 1.906-.706.265-1.533.068-2.154-.552a.5.5 0 0 1 .708-.708c.38.38.802.433 1.095.323.28-.105.551-.4.551-.969 0-.453-.151-.664-.303-.78-.17-.132-.414-.2-.687-.219a3.843 3.843 0 0 1-.495.015l-.01-.001h-.006l.032-.5-.075-.493h.002l.004-.001.011-.002a2.132 2.132 0 0 1 .155-.015c.09-.006.212-.01.354-.005.252-.032.511-.128.7-.285.184-.152.318-.371.318-.714 0-.256-.081-.405-.174-.498a.734.734 0 0 0-.444-.193zm-.85 2.207l-.076-.494a.5.5 0 0 0 .042.993l.033-.5zm.031-.5z" fill="#fff"/></svg>
